assets/images/footer-icon1.svg

<svg width="22" height="22" viewBox="0 0 22 22" fill="none" xmlns="http://www.w3.org/2000/svg">
<g id="icon">
<path id="icon_2" fill-rule="evenodd" clip-rule="evenodd" d="M19 0C20.6569 0 22 1.34315 22 3V19C22 20.6569 20.6569 22 19 22H3C1.34315 22 0 20.6569 0 19V3C0 1.34315 1.34315 0 3 0H19ZM19 2C19.5523 2 20 2.44772 20 3V19C20 19.5523 19.5523 20 19 20H14V12.9999H16.0762C16.5066 12.9999 16.8887 12.7245 17.0249 12.3161L17.4679 10.9871C17.6298 10.5014 17.2683 9.99992 16.7564 9.99992H14V7.99992C14 7.49992 14.5 6.99992 15 6.99992H17C17.5523 6.99992 18 6.5522 18 5.99992V5.31393C18 4.99091 17.7937 4.7013 17.4813 4.61887C16.1705 4.27295 15 4.27295 15 4.27295C12.5 4.27295 11 5.99992 11 7.49992V9.99992H9C8.44772 9.99992 8 10.4476 8 10.9999V11.9999C8 12.5522 8.44771 12.9999 9 12.9999H11V20H3C2.44772 20 2 19.5523 2 19V3C2 2.44772 2.44772 2 3 2H19Z" fill="#151618"/>
</g>
</svg>

<svg width="22" height="22" fill="none" xmlns="http://www.w3.org/2000/svg"><path fill-rule="evenodd" clip-rule="evenodd" d="M19 0a3 3 0 0 1 3 3v16a3 3 0 0 1-3 3H3a3 3 0 0 1-3-3V3a3 3 0 0 1 3-3h16Zm0 2a1 1 0 0 1 1 1v16a1 1 0 0 1-1 1h-5v-7h2.076a1 1 0 0 0 .949-.684l.443-1.329a.75.75 0 0 0-.712-.987H14V8c0-.5.5-1 1-1h2a1 1 0 0 0 1-1v-.686a.71.71 0 0 0-.519-.695C16.171 4.273 15 4.273 15 4.273c-2.5 0-4 1.727-4 3.227V10H9a1 1 0 0 0-1 1v1a1 1 0 0 0 1 1h2v7H3a1 1 0 0 1-1-1V3a1 1 0 0 1 1-1h16Z" fill="#151618"/></svg>
